icons/1_Primary/Webflow.svg

<svg width="1024" height="1024" fill="none" xmlns="http://www.w3.org/2000/svg"><g clip-path="url(#a)"><path d="M512 1024c282.77 0 512-229.23 512-512S794.77 0 512 0 0 229.23 0 512s229.23 512 512 512Z" fill="#728DBE"/><path d="M399.57 494.6c0-11.39-11.07-23.48-30.24-23.48-21.52 0-45.16 15.79-48.77 47.28-3.69 31.81 16.1 45.95 36 45.95s30.39-7.78 41.08-18.14c-9.19-11.55-21-6.2-23.33-5a23.87 23.87 0 0 1-12.33 3c-7.7 0-15.55-3.46-15.55-17.83 49.37-4.92 53.14-20.38 53.14-31.78Zm-24.43 1.88c-.31 3.53-1.73 9.58-26.7 13 5.26-18.69 15.32-20.11 19.95-20.11a6.525 6.525 0 0 1 6.43 4.382c.304.879.416 1.812.33 2.738l-.01-.01Zm-83.57 3.06s-10.6 33.3-11.47 36c-.3-2.77-8.1-62.54-8.1-62.54-18.06 0-27.72 12.88-32.83 26.47 0 0-12.88 33.38-14 36.21-.08-2.59-2-35.81-2-35.81-1.1-16.65-16.34-26.78-28.67-26.78l14.92 90.56c18.93-.08 29.14-12.88 34.48-26.47 0 0 11.39-29.45 11.86-30.79.08 1.26 8.17 57.26 8.17 57.26 19 0 29.22-12 34.71-25.13l26.62-65.42c-18.68-.02-28.58 12.79-33.68 26.45l-.01-.01ZM469.31 471c-11.7 0-20.66 6.36-28.2 15.71v-.08l6.75-54.43c-15.55 0-28.2 13.51-30.63 33.61l-11.78 97.15c9 0 18.46-2.59 23.56-9.19a26.08 26.08 0 0 0 21.52 10.6c26.23 0 44.22-30.47 44.22-59.06C494.6 479.21 482 471 469.31 471Zm-2.43 46.73c-2.75 15.94-11.62 26.78-20.18 26.78s-12.33-3.85-12.33-3.85c1.65-14 2.67-22.54 5.81-29.92 3.14-7.38 10.6-19.16 18.38-19.16 7.61-.04 11.07 10.09 8.32 26.11v.04Zm93.38-44.61H542l.08-.94c1.26-11.94 4.08-18.22 13.43-19.24 6.36-.63 9.19-3.93 9.9-7.54.55-2.83 2.28-12.64 2.28-12.64-36.76-.24-48.3 15.63-51.29 39.82l-.08.55h-.39c-6 0-12.57 6.75-13.67 15.32l-.39 3.14h12.25l-10.29 85-3.14 15.24c.39 0 .86.08 1.26.08 17.2-.63 28.2-14.22 30.63-33.93l8-66.37h5.73c5.65 0 12.25-5.65 13.43-15.08l.52-3.41Zm95.19-1.57c-21.13 0-41.08 15.55-47.2 40-6.12 24.45 3.14 53.33 34.24 53.33s48.93-30.08 48.93-55.13c0-24.96-16.88-38.24-35.97-38.24v.04Zm8.56 45.4c-1.1 11.07-6 27.88-19.32 27.88s-11.55-19.63-10.21-29c1.41-10 7-24.19 19-24.19 10.77-.02 11.79 12.78 10.52 25.27l.01.04Zm131.79-17.4s-10.6 33.3-11.47 36c-.31-2.83-8.09-62.6-8.09-62.6-18.06 0-27.72 12.88-32.83 26.47 0 0-12.88 33.38-14 36.21-.08-2.59-2-35.81-2-35.81-1.1-16.65-16.34-26.78-28.67-26.78l14.84 90.56c18.93-.08 29.14-12.88 34.48-26.47 0 0 11.39-29.45 11.78-30.79.16 1.26 8.17 57.26 8.17 57.26 19 0 29.22-12 34.71-25.13l26.62-65.42c-18.62.03-28.51 12.84-33.54 26.5Zm-218.26-66.84-15.39 124.18L559 572.2c.39 0 .86.08 1.26.08 16.57-.24 28.35-14.77 30.55-33.07l8.88-71.21c2.67-21.78-10.29-35.29-22.15-35.29Z" fill="#fff"/></g><defs><clipPath id="a"><path fill="#fff" d="M0 0h1024v1024H0z"/></clipPath></defs></svg>

<svg width="1024" height="1024" viewBox="0 0 1024 1024" fill="none" xmlns="http://www.w3.org/2000/svg">
<g clip-path="url(#clip0_2_3903)">
<path d="M512 1024C794.77 1024 1024 794.77 1024 512C1024 229.23 794.77 0 512 0C229.23 0 0 229.23 0 512C0 794.77 229.23 1024 512 1024Z" fill="#728DBE"/>
<path d="M399.57 494.6C399.57 483.21 388.5 471.12 369.33 471.12C347.81 471.12 324.17 486.91 320.56 518.4C316.87 550.21 336.66 564.35 356.56 564.35C376.46 564.35 386.95 556.57 397.64 546.21C388.45 534.66 376.64 540.01 374.31 541.21C370.546 543.304 366.285 544.341 361.98 544.21C354.28 544.21 346.43 540.75 346.43 526.38C395.8 521.46 399.57 506 399.57 494.6ZM375.14 496.48C374.83 500.01 373.41 506.06 348.44 509.48C353.7 490.79 363.76 489.37 368.39 489.37C369.319 489.332 370.246 489.493 371.107 489.842C371.969 490.191 372.746 490.721 373.387 491.395C374.027 492.07 374.515 492.873 374.82 493.752C375.124 494.631 375.236 495.564 375.15 496.49L375.14 496.48ZM291.57 499.54C291.57 499.54 280.97 532.84 280.1 535.54C279.8 532.77 272 473 272 473C253.94 473 244.28 485.88 239.17 499.47C239.17 499.47 226.29 532.85 225.17 535.68C225.09 533.09 223.17 499.87 223.17 499.87C222.07 483.22 206.83 473.09 194.5 473.09L209.42 563.65C228.35 563.57 238.56 550.77 243.9 537.18C243.9 537.18 255.29 507.73 255.76 506.39C255.84 507.65 263.93 563.65 263.93 563.65C282.93 563.65 293.15 551.65 298.64 538.52L325.26 473.1C306.58 473.08 296.68 485.89 291.58 499.55L291.57 499.54ZM469.31 471C457.61 471 448.65 477.36 441.11 486.71V486.63L447.86 432.2C432.31 432.2 419.66 445.71 417.23 465.81L405.45 562.96C414.45 562.96 423.91 560.37 429.01 553.77C431.487 557.13 434.735 559.846 438.479 561.69C442.224 563.535 446.357 564.454 450.53 564.37C476.76 564.37 494.75 533.9 494.75 505.31C494.6 479.21 482 471 469.31 471ZM466.88 517.73C464.13 533.67 455.26 544.51 446.7 544.51C438.14 544.51 434.37 540.66 434.37 540.66C436.02 526.66 437.04 518.12 440.18 510.74C443.32 503.36 450.78 491.58 458.56 491.58C466.17 491.54 469.63 501.67 466.88 517.69V517.73ZM560.26 473.12H542L542.08 472.18C543.34 460.24 546.16 453.96 555.51 452.94C561.87 452.31 564.7 449.01 565.41 445.4C565.96 442.57 567.69 432.76 567.69 432.76C530.93 432.52 519.39 448.39 516.4 472.58L516.32 473.13H515.93C509.93 473.13 503.36 479.88 502.26 488.45L501.87 491.59H514.12L503.83 576.59L500.69 591.83C501.08 591.83 501.55 591.91 501.95 591.91C519.15 591.28 530.15 577.69 532.58 557.98L540.58 491.61H546.31C551.96 491.61 558.56 485.96 559.74 476.53L560.26 473.12ZM655.45 471.55C634.32 471.55 614.37 487.1 608.25 511.55C602.13 536 611.39 564.88 642.49 564.88C673.59 564.88 691.42 534.8 691.42 509.75C691.42 484.79 674.54 471.51 655.45 471.51V471.55ZM664.01 516.95C662.91 528.02 658.01 544.83 644.69 544.83C631.37 544.83 633.14 525.2 634.48 515.83C635.89 505.83 641.48 491.64 653.48 491.64C664.25 491.62 665.27 504.42 664 516.91L664.01 516.95ZM795.8 499.55C795.8 499.55 785.2 532.85 784.33 535.55C784.02 532.72 776.24 472.95 776.24 472.95C758.18 472.95 748.52 485.83 743.41 499.42C743.41 499.42 730.53 532.8 729.41 535.63C729.33 533.04 727.41 499.82 727.41 499.82C726.31 483.17 711.07 473.04 698.74 473.04L713.58 563.6C732.51 563.52 742.72 550.72 748.06 537.13C748.06 537.13 759.45 507.68 759.84 506.34C760 507.6 768.01 563.6 768.01 563.6C787.01 563.6 797.23 551.6 802.72 538.47L829.34 473.05C810.72 473.08 800.83 485.89 795.8 499.55ZM577.54 432.71L562.15 556.89L559 572.2C559.39 572.2 559.86 572.28 560.26 572.28C576.83 572.04 588.61 557.51 590.81 539.21L599.69 468C602.36 446.22 589.4 432.71 577.54 432.71Z" fill="white"/>
</g>
<defs>
<clipPath id="clip0_2_3903">
<rect width="1024" height="1024" fill="white"/>
</clipPath>
</defs>
</svg>
